X: 2062
T: Astley's Ride
R: polka
M: 2/4
K: Dmajor
|:A|dd dc/d/|ee ef/e/|d/c/B/A/ Bc|d/e/f/g/ a/g/f/e/|
dd dc/d/|ee ef/e/|d/c/B/A/ Bc|d2 d:|
|:e|ff fe/f/|gg g>f|ee ed/e/|ff fa|
dd dc/d/|ee ef/e/|d/c/B/A/ Bc|d2 d:|

